X:39
%%etbk:tnset id:308,pos:2,rep:3x,ant:
%%etbk:wsite http://www.thesession.org/tunes/display/58
%%etbk:color #ffffcc
%%etbk:pldat 2016-07-12T16:51,2016-07-09T13:49,2015-07-22T17:22,2014-12-15T16:44,2014-05-17T15:21,2014-04-28T18:40,2014-03-18T17:23,2014-02-10T18:01,2013-11-26T16:42,2013-11-23T15:20,2013-11-04T18:03,2013-08-27T18:20,2013-05-22T16:57
T: Lads Of Laoise, The
Z: Piano Box Version by Martin Fleischmann
H: Created 2013-02-19 /  Last Modified 2016-07-09
M: 4/4
L: 1/8
R: reel
K: Emin
|:!3!E2!1!B,B, !3!EG!4!F!3!E | !2!D2!1!A,A, !2!DEFD | !5!G!3!EE!2!D !1!EFG!4!A | !2!B2 !5!e!3!^c !4!d!2!B!1!A!4!F |
!3!E2!1!B,B, !3!EGFE | !2!D2!1!A,A, !2!DEFD| !1!E2 !4!BE !5!d!4!B!3!A!2!F| !1!DEF!4!A !5!B!1!E E2:|
|:!5!e!1!B!2!B!1!B !2!egfe| !1!defa !4!gfe!1!d| !2!B!1!d!2!ef !4!gfge | !3!fgaf !4!gfed|
!2!e!1!B!2!B!2!B !1!G!2!B!1!F!2!B | !1!E!2!BB!1!A !2!B!4!d!2!ef | !4!g2ge !3!f2fd| !2!efe!1!d !2!B!1!A!3!F!1!D:|


